icons/Editor/h-6.svg

<svg viewBox="0 0 24 24" xmlns="http://www.w3.org/2000/svg"><path d="M21.097 8L18.499 12.5C20.7091 12.5 22.5 14.2909 22.5 16.5C22.5 18.7091 20.7091 20.5 18.5 20.5C16.2909 20.5 14.5 18.7091 14.5 16.5C14.5 15.7636 14.699 15.0737 15.0461 14.4811L18.788 8H21.097ZM4 4V11H11V4H13V20H11V13H4V20H2V4H4ZM18.5 14.5C17.3954 14.5 16.5 15.3954 16.5 16.5C16.5 17.6046 17.3954 18.5 18.5 18.5C19.6046 18.5 20.5 17.6046 20.5 16.5C20.5 15.3954 19.6046 14.5 18.5 14.5Z"/></svg>

<svg xmlns="http://www.w3.org/2000/svg" viewBox="0 0 24 24">
    <g>
        <path fill="none" d="M0 0H24V24H0z"/>
        <path d="M21.097 8l-2.598 4.5c2.21 0 4.001 1.79 4.001 4s-1.79 4-4 4-4-1.79-4-4c0-.736.199-1.426.546-2.019L18.788 8h2.309zM4 4v7h7V4h2v16h-2v-7H4v7H2V4h2zm14.5 10.5c-1.105 0-2 .895-2 2s.895 2 2 2 2-.895 2-2-.895-2-2-2z"/>
    </g>
</svg>
